symbols/web/airplane_ticket/materialsymbolssharp/airplane_ticket_wght600_40px.svg

<svg xmlns="http://www.w3.org/2000/svg" height="40" width="40"><path d="m14.667 26.333 15.166-4.125q.709-.166 1.021-.666.313-.5.146-1.209-.208-.666-.75-.958-.542-.292-1.208-.125l-4.209 1.125L18 13.792l-2.25.5 4.208 7.375-4.416 1.208-2.125-1.75-1.334.417ZM2.667 34V23.708q1.458-.208 2.479-1.229Q6.167 21.458 6.167 20q0-1.5-1.021-2.521T2.667 16.25V6h34.666v28Zm3.666-3.667h27.334V9.667H6.333v4.125q1.625 1.041 2.563 2.666.937 1.625.937 3.542 0 1.917-.937 3.542-.938 1.625-2.563 2.666ZM20 20Z"/></svg>

<svg xmlns="http://www.w3.org/2000/svg" height="40" width="40"><path d="M14.667 26.333 29.833 22.208Q30.542 22.042 30.854 21.542Q31.167 21.042 31 20.333Q30.792 19.667 30.25 19.375Q29.708 19.083 29.042 19.25L24.833 20.375L18 13.792L15.75 14.292L19.958 21.667L15.542 22.875L13.417 21.125L12.083 21.542ZM2.667 34V23.708Q4.125 23.5 5.146 22.479Q6.167 21.458 6.167 20Q6.167 18.5 5.146 17.479Q4.125 16.458 2.667 16.25V6H37.333V34ZM6.333 30.333H33.667V9.667H6.333V13.792Q7.958 14.833 8.896 16.458Q9.833 18.083 9.833 20Q9.833 21.917 8.896 23.542Q7.958 25.167 6.333 26.208ZM20 20Q20 20 20 20Q20 20 20 20Q20 20 20 20Q20 20 20 20Z"/></svg>
